T: Richard Deasy's March
M: 4/4
L: 1/8
K: Edor
G2 E>^D EFGA | BEGB e2 dB | A2 F>E DEFG | AFdB A2 BA |G2 E>^D EFGA | BcdB e2 f>e | dBA^G A=cBA | G2 E>^D E2 :|B2 e>f edBA | BGEF G2 F>G | Adce defe | dBAF D2 BA |G2 E>^D EFGA | BcdB e2 f>e | dBA^G A=cBA | G2 E>^D E2 ^GA |B2 e>f edBA | BGEF G2 F>G | Adce defe | dBAF D2 EF |G2 F>A GFGB | A2 ^G>A BcdB | edB^G A=cBA | G2 E>^D E2 |]
